icons/features/f-4.svg

<svg aria-hidden="true" focusable="false" data-prefix="fas" data-icon="baby" class="svg-inline--fa fa-baby fa-w-12" role="img" xmlns="http://www.w3.org/2000/svg" viewBox="0 0 384 512"><path fill="currentColor" d="M192 160c44.2 0 80-35.8 80-80S236.2 0 192 0s-80 35.8-80 80 35.8 80 80 80zm-53.4 248.8l25.6-32-61.5-51.2L56.8 383c-11.4 14.2-11.7 34.4-.8 49l48 64c7.9 10.5 19.9 16 32 16 8.3 0 16.8-2.6 24-8 17.7-13.2 21.2-38.3 8-56l-29.4-39.2zm142.7-83.2l-61.5 51.2 25.6 32L216 448c-13.2 17.7-9.7 42.8 8 56 7.2 5.4 15.6 8 24 8 12.2 0 24.2-5.5 32-16l48-64c10.9-14.6 10.6-34.8-.8-49l-45.9-57.4zM376.7 145c-12.7-18.1-37.6-22.4-55.7-9.8l-40.6 28.5c-52.7 37-124.2 37-176.8 0L63 135.3C44.9 122.6 20 127 7.3 145-5.4 163.1-1 188 17 200.7l40.6 28.5c17 11.9 35.4 20.9 54.4 27.9V288h160v-30.8c19-7 37.4-16 54.4-27.9l40.6-28.5c18.1-12.8 22.4-37.7 9.7-55.8z"></path></svg>

<svg width="384" height="512" viewBox="0 0 384 512" fill="none" xmlns="http://www.w3.org/2000/svg">
<path d="M192 160C236.2 160 272 124.2 272 80C272 35.8 236.2 0 192 0C147.8 0 112 35.8 112 80C112 124.2 147.8 160 192 160ZM138.6 408.8L164.2 376.8L102.7 325.6L56.8 383C45.4 397.2 45.1 417.4 56 432L104 496C111.9 506.5 123.9 512 136 512C144.3 512 152.8 509.4 160 504C177.7 490.8 181.2 465.7 168 448L138.6 408.8ZM281.3 325.6L219.8 376.8L245.4 408.8L216 448C202.8 465.7 206.3 490.8 224 504C231.2 509.4 239.6 512 248 512C260.2 512 272.2 506.5 280 496L328 432C338.9 417.4 338.6 397.2 327.2 383L281.3 325.6V325.6ZM376.7 145C364 126.9 339.1 122.6 321 135.2L280.4 163.7C227.7 200.7 156.2 200.7 103.6 163.7L63 135.3C44.9 122.6 20 127 7.3 145C-5.4 163.1 -0.999998 188 17 200.7L57.6 229.2C74.6 241.1 93 250.1 112 257.1V288H272V257.2C291 250.2 309.4 241.2 326.4 229.3L367 200.8C385.1 188 389.4 163.1 376.7 145Z" fill="white"/>
</svg>
